glitch-avatars-svg/base_avatar/Avatar.fla/placeholder symbols 3/Avatar_backArmUpperRight3.svg

<?xml version="1.0" encoding="UTF-8" standalone="no"?>
<!-- Generator: flash2svg, http://dissentgraphics.com/tools/flash2svg -->

<svg
   xmlns:dc="http://purl.org/dc/elements/1.1/"
   xmlns:cc="http://creativecommons.org/ns#"
   xmlns:rdf="http://www.w3.org/1999/02/22-rdf-syntax-ns#"
   xmlns:svg="http://www.w3.org/2000/svg"
   xmlns="http://www.w3.org/2000/svg"
   xmlns:sodipodi="http://sodipodi.sourceforge.net/DTD/sodipodi-0.dtd"
   xmlns:inkscape="http://www.inkscape.org/namespaces/inkscape"
   id="Avatar"
   image-rendering="auto"
   version="1.1"
   x="0px"
   y="0px"
   width="15.856055"
   height="14.889458"
   viewBox="0 0 15.856055 14.889458"
   inkscape:version="0.48.4 r9939"
   sodipodi:docname="Avatar_backArmUpperRight3.svg">
  <metadata
     id="metadata3059">
    <rdf:RDF>
      <cc:Work
         rdf:about="">
        <dc:format>image/svg+xml</dc:format>
        <dc:type
           rdf:resource="http://purl.org/dc/dcmitype/StillImage" />
      </cc:Work>
    </rdf:RDF>
  </metadata>
  <sodipodi:namedview
     pagecolor="#ffffff"
     bordercolor="#666666"
     borderopacity="1"
     objecttolerance="10"
     gridtolerance="10"
     guidetolerance="10"
     inkscape:pageopacity="0"
     inkscape:pageshadow="2"
     inkscape:window-width="640"
     inkscape:window-height="480"
     id="namedview3057"
     showgrid="false"
     fit-margin-top="0"
     fit-margin-left="0"
     fit-margin-right="0"
     fit-margin-bottom="0"
     inkscape:zoom="1.8730159"
     inkscape:cx="33.556056"
     inkscape:cy="-50.2"
     inkscape:window-x="0"
     inkscape:window-y="0"
     inkscape:window-maximized="0"
     inkscape:current-layer="Avatar" />
  <defs
     id="defs3041">
    <radialGradient
       gradientUnits="userSpaceOnUse"
       color-interpolation="sRGB"
       r="10.920229"
       cx="8.1499996"
       cy="5.3499999"
       fx="8.1499996"
       fy="5.3499999"
       gradientTransform="matrix(-0.85147095,-0.52607727,0.53968811,-0.87414551,12.2,14.35)"
       id="radialGradient">
      <stop
         stop-color="#FFF"
         stop-opacity="1"
         offset="0"
         id="stop3044" />
      <stop
         stop-color="#FFF"
         stop-opacity="0.40784313725490196"
         offset="1"
         id="stop3046" />
    </radialGradient>
    <radialGradient
       gradientUnits="userSpaceOnUse"
       color-interpolation="sRGB"
       r="10.93"
       cx="20.357"
       cy="19.705"
       fx="20.357"
       fy="19.705"
       gradientTransform="matrix(-0.851,-0.526,0.539,-0.873,14.85,33.25)"
       id="radialGradient1">
      <stop
         stop-color="#FFF"
         stop-opacity="1"
         offset="0"
         id="stop3049" />
      <stop
         stop-color="#FFF"
         stop-opacity="0.40784313725490196"
         offset="1"
         id="stop3051" />
    </radialGradient>
  </defs>
  <g
     id="backArmUpperRight4"
     overflow="visible"
     style="overflow:visible"
     transform="translate(-0.44394446,2.0894578)">
    <g
       id="backArmUpperRight3_0">
      <g
         id="element">
        <path
           id="path"
           d="m 5.75,-1 0,-0.1 -0.1,0.05 c -3.5,-2 -4.75,-1.05 -5.2,2.3 -0.1,0.95 1.05,3 2.6,4.7 L 2.95,6.2 3.5,6.5 6.75,9.2 6.75,9.25 6.9,9.3 c 1,0.75 2.1,1.5 3.05,2.05 l 1,0.6 0,0.15 0.1,-0.1 c 0.8,0.4 1.45,0.7 1.9,0.8 0.55,-0.05 1.1,-0.2 1.55,-0.45 l 0.1,-0.05 -0.05,0 c 1.05,-0.7 1.65,-2 1.65,-3.25 L 16.3,8.95 16.15,8.8 C 16.1,7.2 15.2,6.15 14.05,5.05 L 13.9,4.8 13.8,4.85 9.1,1.3 l 0,-0.05 -0.05,0 C 8,0.45 7,-0.2 6.25,-0.7 L 5.75,-1 z m -0.2,0.2 C 5.6,-0.6 5.7,-0.3 5.7,0.05 4.35,-0.9 3.2,-1.65 2.45,-1.75 3.15,-1.9 4.15,-1.6 5.55,-0.8 z M 2.1,-1.5 c 0.65,-0.05 2,0.8 3.55,1.9 C 5.6,0.75 5.55,1.2 5.35,1.6 L 5.1,1.95 1.6,-1.3 l 0.5,-0.35 0,0.15 z m 4,1.05 C 6.85,0.05 7.8,0.65 8.85,1.5 8.9,1.7 8.95,2 8.9,2.45 L 6,0.25 l -0.1,-0.8 0.2,0.1 z m 5.35,5.25 c 0,0.45 -0.15,1.05 -0.5,1.7 L 10.75,6.8 8.3,4.85 8.35,4.8 C 8.75,4.1 9.05,3.5 9.15,3 L 11.4,4.75 11.45,4.8 z M 11.55,4.4 9.2,2.65 9.25,1.75 11.4,3.45 11.55,4.4 z m 0.4,-0.55 1.85,1.4 C 13.85,5.5 13.95,5.9 14,6.4 L 11.8,4.6 c 0.05,-0.4 0,-0.65 0,-0.9 l 0.15,0.15 z M 13.4,9 10.95,6.9 11.15,6.6 C 11.5,6 11.7,5.5 11.75,5 L 14,6.85 c 0,0.35 -0.05,0.7 -0.2,1.1 L 13.4,9 z m 0.7,-0.9 0.2,-0.95 c 0.75,0.75 1.3,1.4 1.6,1.75 l -0.05,0.2 c 0.05,0.55 -0.15,1.15 -0.4,1.75 L 13.65,9.2 14.1,8.1 z m 0.35,3.9 c -0.45,-0.05 -1.1,-0.2 -2.1,-0.85 0.4,-0.5 0.8,-1.05 1.1,-1.7 l 1.8,1.6 0.2,-0.2 c -0.25,0.35 -0.4,0.65 -0.7,0.95 L 14.45,12 z M 11.15,11.7 7.6,9.45 c 0.55,0 1.05,-0.1 1.55,-0.4 l 0.05,0 c 1.1,0.95 1.95,1.65 2.65,2.1 -0.3,0.3 -0.55,0.45 -0.7,0.55 z m 0.95,-0.35 0.35,0.2 c 0.7,0.4 1.15,0.65 1.55,0.75 -0.3,0.1 -0.7,0.2 -1.05,0.1 -0.2,0 -0.65,-0.05 -1.5,-0.5 l 0.65,-0.55 z m -0.05,-0.4 C 11.4,10.45 10.5,9.8 9.35,8.85 9.9,8.45 10.35,7.9 10.8,7.2 l 2.45,2.1 c -0.35,0.6 -0.75,1.2 -1.2,1.65 z M 14.2,5.6 c 0.8,0.85 1.4,1.7 1.65,2.7 L 14.3,6.7 c 0,-0.4 -0.1,-0.75 -0.1,-1.1 z m -8.25,-5 2.9,2.2 C 8.8,3.3 8.55,3.9 8.1,4.6 l 0,0.05 -2.85,-2.5 C 5.4,2.05 5.5,1.9 5.55,1.75 5.8,1.35 5.85,0.95 5.95,0.6 z m 1.9,4.25 C 7.45,5.5 6.95,5.95 6.5,6.2 5.5,5.25 4.6,4.4 3.85,3.55 4.35,3.25 4.75,2.85 5.1,2.45 l 2.75,2.4 z M 1.75,3.75 Q 0.7,2.05 0.75,1.3 c 0.2,-1 0.35,-1.7 0.6,-2.2 0,0.55 0.25,1.75 1.15,3.15 L 3.4,3.5 C 3.25,3.65 3,3.7 2.75,3.8 2.4,3.9 2.05,3.9 1.75,3.7 l 0,0.05 z m 1.9,0 c 0.7,0.8 1.55,1.65 2.5,2.6 -0.75,0.3 -1.45,0.35 -2,0 L 3.65,6.2 2,4.1 2.9,4.1 3.65,3.75 z M 3.7,3.4 2.75,2.1 c -0.8,-1.3 -1,-2.4 -1.1,-2.95 L 4.9,2.2 C 4.55,2.65 4.1,3.1 3.7,3.4 z M 4.3,6.8 C 4.85,6.95 5.65,6.95 6.4,6.6 L 8.9,8.8 C 8.35,9.1 7.7,9.25 7.1,9.05 6.15,8.35 5.25,7.65 4.65,7.1 L 4.3,6.8 z M 6.7,6.4 C 7.2,6.1 7.7,5.7 8.15,5.1 l 2.45,2 C 10.2,7.6 9.75,8.2 9.15,8.6 L 6.7,6.4 z"
           inkscape:connector-curvature="0"
           style="fill:url(#radialGradient1)" />
      </g>
    </g>
  </g>
</svg>

<?xml version="1.0" encoding="utf-8"?>
<!-- Generator: flash2svg, http://dissentgraphics.com/tools/flash2svg -->
<svg xmlns:xlink="http://www.w3.org/1999/xlink" id="Avatar" image-rendering="auto" baseProfile="basic" version="1.1" x="0px" y="0px" width="68" height="126" xmlns="http://www.w3.org/2000/svg" viewBox="0 0 68 126">
  <defs>
    <radialGradient gradientUnits="userSpaceOnUse" color-interpolation="sRGB" r="10.920228971055918" cx="8.15" cy="5.35" fx="8.15" fy="5.35" gradientTransform="matrix(-0.851470947265625 -0.5260772705078125 0.5396881103515625 -0.8741455078125 12.2 14.35)" id="radialGradient">
      <stop stop-color="#FFF" stop-opacity="1" offset="0"/>
      <stop stop-color="#FFF" stop-opacity="0.40784313725490196" offset="1"/>
    </radialGradient>
    <radialGradient gradientUnits="userSpaceOnUse" color-interpolation="sRGB" r="10.93" cx="20.357" cy="19.705" fx="20.357" fy="19.705" gradientTransform="matrix(-0.851 -0.526 0.539 -0.873 14.85 33.25)" id="radialGradient1">
      <stop stop-color="#FFF" stop-opacity="1" offset="0"/>
      <stop stop-color="#FFF" stop-opacity="0.40784313725490196" offset="1"/>
    </radialGradient>
  </defs>
  <g id="backArmUpperRight4" overflow="visible">
    <g id="backArmUpperRight3_0">
      <g id="element">
        <path id="path" fill="url(#radialGradient1)" d="M5.75,-1 L5.75,-1.1 5.65,-1.05 C2.15,-3.05 0.9,-2.1 0.45,1.25 0.35,2.2 1.5,4.25 3.05,5.95 L2.95,6.2 3.5,6.5 6.75,9.2 6.75,9.25 6.9,9.3 C7.9,10.05 9,10.8 9.95,11.35 L10.95,11.95 10.95,12.1 11.05,12 C11.85,12.4 12.5,12.7 12.95,12.8 13.5,12.75 14.05,12.6 14.5,12.35 L14.6,12.3 14.55,12.3 C15.6,11.6 16.2,10.3 16.2,9.05 L16.3,8.95 16.15,8.8 C16.1,7.2 15.2,6.15 14.05,5.05 L13.9,4.8 13.8,4.85 9.1,1.3 9.1,1.25 9.05,1.25 C8,0.45 7,-0.2 6.25,-0.7 L5.75,-1z M5.55,-0.8 C5.6,-0.6 5.7,-0.3 5.7,0.05 4.35,-0.9 3.2,-1.65 2.45,-1.75 3.15,-1.9 4.15,-1.6 5.55,-0.8z M2.1,-1.5 C2.75,-1.55 4.1,-0.7 5.65,0.4 5.6,0.75 5.55,1.2 5.35,1.6 L5.1,1.95 1.6,-1.3 2.1,-1.65 2.1,-1.5z M6.1,-0.45 C6.85,0.05 7.8,0.65 8.85,1.5 8.9,1.7 8.95,2 8.9,2.45 L6,0.25 5.9,-0.55 6.1,-0.45z M11.45,4.8 C11.45,5.25 11.3,5.85 10.95,6.5 L10.75,6.8 8.3,4.85 8.35,4.8 C8.75,4.1 9.05,3.5 9.15,3 L11.4,4.75 11.45,4.8z M11.55,4.4 L9.2,2.65 9.25,1.75 11.4,3.45 11.55,4.4z M11.95,3.85 L13.8,5.25 C13.85,5.5 13.95,5.9 14,6.4 L11.8,4.6 C11.85,4.2 11.8,3.95 11.8,3.7 L11.95,3.85z M13.4,9 L10.95,6.9 11.15,6.6 C11.5,6 11.7,5.5 11.75,5 L14,6.85 C14,7.2 13.95,7.55 13.8,7.95 L13.4,9z M14.1,8.1 L14.3,7.15 C15.05,7.9 15.6,8.55 15.9,8.9 L15.85,9.1 C15.9,9.65 15.7,10.25 15.45,10.85 L13.65,9.2 14.1,8.1z M14.45,12 C14,11.95 13.35,11.8 12.35,11.15 12.75,10.65 13.15,10.1 13.45,9.45 L15.25,11.05 15.45,10.85 C15.2,11.2 15.05,11.5 14.75,11.8 L14.45,12z M11.15,11.7 L7.6,9.45 C8.15,9.45 8.65,9.35 9.15,9.05 L9.2,9.05 C10.3,10 11.15,10.7 11.85,11.15 11.55,11.45 11.3,11.6 11.15,11.7z M12.1,11.35 L12.45,11.55 C13.15,11.95 13.6,12.2 14,12.3 13.7,12.4 13.3,12.5 12.95,12.4 12.75,12.4 12.3,12.35 11.45,11.9 L12.1,11.35z M12.05,10.95 C11.4,10.45 10.5,9.8 9.35,8.85 9.9,8.45 10.35,7.9 10.8,7.2 L13.25,9.3 C12.9,9.9 12.5,10.5 12.05,10.95z M14.2,5.6 C15,6.45 15.6,7.3 15.85,8.3 L14.3,6.7 C14.3,6.3 14.2,5.95 14.2,5.6z M5.95,0.6 L8.85,2.8 C8.8,3.3 8.55,3.9 8.1,4.6 L8.1,4.65 5.25,2.15 C5.4,2.05 5.5,1.9 5.55,1.75 5.8,1.35 5.85,0.95 5.95,0.6z M7.85,4.85 C7.45,5.5 6.95,5.95 6.5,6.2 5.5,5.25 4.6,4.4 3.85,3.55 4.35,3.25 4.75,2.85 5.1,2.45 L7.85,4.85z M1.75,3.75 Q0.7,2.05 0.75,1.3 C0.95,0.3 1.1,-0.4 1.35,-0.9 1.35,-0.35 1.6,0.85 2.5,2.25 L3.4,3.5 C3.25,3.65 3,3.7 2.75,3.8 2.4,3.9 2.05,3.9 1.75,3.7 L1.75,3.75z M3.65,3.75 C4.35,4.55 5.2,5.4 6.15,6.35 5.4,6.65 4.7,6.7 4.15,6.35 L3.65,6.2 2,4.1 2.9,4.1 3.65,3.75z M3.7,3.4 L2.75,2.1 C1.95,0.8 1.75,-0.3 1.65,-0.85 L4.9,2.2 C4.55,2.65 4.1,3.1 3.7,3.4z M4.3,6.8 C4.85,6.95 5.65,6.95 6.4,6.6 L8.9,8.8 C8.35,9.1 7.7,9.25 7.1,9.05 6.15,8.35 5.25,7.65 4.65,7.1 L4.3,6.8z M6.7,6.4 C7.2,6.1 7.7,5.7 8.15,5.1 L10.6,7.1 C10.2,7.6 9.75,8.2 9.15,8.6 L6.7,6.4z"/>
      </g>
    </g>
  </g>
</svg>
